assets/ewbmq-logo-back.svg

<svg fill="none" height="50" viewBox="0 0 197 50" width="197" xmlns="http://www.w3.org/2000/svg" xmlns:xlink="http://www.w3.org/1999/xlink"><clipPath id="a"><path d="m27 0h50v50h-50z"/></clipPath><g fill="#181818"><path d="m92 33.9096v-18.617h14.681v3.9627h-10.1065v3.3511h6.6755v3.8298h-6.6755v3.5106h10.2125v3.9628z"/><path d="m117.278 33.9096h-4.84l-4.149-18.617h4.707l2.261 11.4893 3.245-11.4893h4.282l3.244 11.4893 2.261-11.4893h4.548l-4.149 18.617h-4.841l-3.271-11.8617z"/><path d="m134.984 15.2926h9.229c.94 0 1.809.1329 2.606.3989.798.2482 1.481.6028 2.048 1.0638.568.461 1.011 1.0195 1.33 1.6756.319.6383.479 1.3386.479 2.101s-.195 1.4805-.585 2.1543c-.373.656-.887 1.2145-1.543 1.6755.816.4433 1.472 1.0195 1.968 1.7287.497.7092.745 1.4894.745 2.3405 0 1.6312-.612 2.9521-1.835 3.9627-1.224 1.0107-2.81 1.516-4.761 1.516h-9.681zm8.936 3.75h-4.361v3.6702h4.361c.657 0 1.18-.1685 1.57-.5053.407-.3369.611-.7802.611-1.3298 0-.5497-.204-.9929-.611-1.3298-.39-.3369-.913-.5053-1.57-.5053zm.399 11.117c.71 0 1.268-.1773 1.676-.5319.425-.3546.638-.8334.638-1.4362s-.213-1.0816-.638-1.4362c-.408-.3546-.966-.5319-1.676-.5319h-4.76v3.9362z"/></g><path d="m164.056 32.5798-6.117-11.4096v12.7394h-4.203v-18.617h5.772l4.601 8.7765 4.601-8.7765h5.771v18.617h-4.308v-12.6862z" fill="#00903d"/><path d="m196.808 24.6011c0 1.2943-.248 2.5177-.745 3.6702-.479 1.1347-1.144 2.1365-1.995 3.0053l1.809 2.2872-3.883 1.4362-1.223-1.5426c-.603.2305-1.233.4078-1.889.532-.638.1418-1.312.2127-2.021.2127-1.383 0-2.686-.2482-3.91-.7447-1.223-.4964-2.278-1.1702-3.164-2.0212-.887-.8688-1.587-1.8883-2.102-3.0585-.514-1.188-.771-2.4468-.771-3.7766s.257-2.5798.771-3.75c.515-1.188 1.215-2.2075 2.102-3.0585.886-.8688 1.941-1.5515 3.164-2.0479 1.224-.4965 2.527-.7447 3.91-.7447s2.686.2482 3.91.7447c1.223.4964 2.278 1.1791 3.164 2.0479.887.851 1.587 1.8705 2.102 3.0585.514 1.1702.771 2.4202.771 3.75zm-6.702 1.6223 1.117 1.4362c.283-.4256.496-.8954.638-1.4096.16-.5319.239-1.0816.239-1.6489 0-.7624-.133-1.4717-.399-2.1277-.266-.6738-.638-1.25-1.117-1.7287-.461-.4787-1.01-.8511-1.649-1.117-.638-.2837-1.329-.4256-2.074-.4256s-1.436.1419-2.074.4256c-.639.2659-1.197.6383-1.676 1.117-.461.4787-.824 1.0549-1.09 1.7287-.266.656-.399 1.3653-.399 2.1277s.133 1.4805.399 2.1542c.266.656.629 1.2234 1.09 1.7021.479.4788 1.037.86 1.676 1.1437.638.2659 1.329.3989 2.074.3989.177 0 .363-.0089.558-.0266.196-.0177.382-.0443.559-.0798l-1.755-2.234z" fill="#00903d"/><g clip-path="url(#a)"><path d="m36.7016 34.9176 13.073 15.0556 13.9368-5.6562-6.6164-17.0354z" fill="#21a952"/><path d="m27 15.4783 6.3933-1.4148 8.1116-13.216683z" fill="#c4e22c"/><path d="m27 15.4798.7927 20.5679 8.9089-1.1301-3.3083-20.8527z" fill="#82ce40"/><path d="m27.7928 36.0477 14.942 13.4287 7.0398.4968-13.073-15.0556z" fill="#40b93c"/><path d="m41.5049.846817 6.107 7.280133-14.2231 5.93805z" fill="#82ce40"/><path d="m47.6119 8.12695 9.4831 19.15465-20.3934 7.636-3.3128-20.8541z" fill="#40b93c"/><path d="m49.7746 49.9732 13.2886-2.0495.6482-3.6067z" fill="#197746"/><path d="m41.514.846817 18.6043 1.202723-12.5064 6.07741z" fill="#53c049"/><path d="m74.4092 18.0913-14.291-16.04177-12.5033 6.07592 9.4801 19.15615z" fill="#2dad57"/><path d="m74.4092 18.0913.651 19.5833-11.3488 6.6424-6.6164-17.0354z" fill="#2b9768"/><path d="m75.0602 37.6746-11.9954 10.2491.6466-3.6068z" fill="#357835"/><path d="m41.514.846802 18.6042 1.202728 2.514-2.04953z" fill="#40b93c"/><path d="m76.9262 14.065-14.2955-14.065-2.5125 2.04953 14.291 16.04177z" fill="#09a048"/><path d="m76.9261 14.0649.0739 19.4305-1.9398 4.1688-.651-19.5729z" fill="#0b895a"/><path d="m36.7016 34.9176 13.073 15.0556 13.9368-5.6562-6.6164-17.0354z" fill="#21a952"/><path d="m27 15.4783 6.3933-1.4148 8.1116-13.216683z" fill="#c4e22c"/><path d="m27 15.4798.7927 20.5679 8.9089-1.1301-3.3083-20.8527z" fill="#82ce40"/><path d="m27.7928 36.0477 14.942 13.4287 7.0398.4968-13.073-15.0556z" fill="#40b93c"/><path d="m41.5049.846817 6.107 7.280133-14.2231 5.93805z" fill="#82ce40"/><path d="m47.6119 8.12695 9.4831 19.15465-20.3934 7.636-3.3128-20.8541z" fill="#40b93c"/><path d="m49.7746 49.9732 13.2886-2.0495.6482-3.6067z" fill="#197746"/><path d="m41.514.846817 18.6043 1.202723-12.5064 6.07741z" fill="#53c049"/><path d="m74.4092 18.0913-14.291-16.04177-12.5033 6.07592 9.4801 19.15615z" fill="#2dad57"/><path d="m74.4092 18.0913.651 19.5833-11.3488 6.6424-6.6164-17.0354z" fill="#2b9768"/><path d="m75.0602 37.6746-11.9954 10.2491.6466-3.6068z" fill="#357835"/><path d="m41.514.846802 18.6042 1.202728 2.514-2.04953z" fill="#40b93c"/><path d="m76.9262 14.065-14.2955-14.065-2.5125 2.04953 14.291 16.04177z" fill="#09a048"/><path d="m76.9261 14.0649.0739 19.4305-1.9398 4.1688-.651-19.5729z" fill="#0b895a"/></g><path d="m12.82 17.2834-7.417 7.4332 7.417 7.4332-2.2834 2.2834-9.716593-9.7166 9.716593-9.7166z" fill="#181818"/></svg>

<svg width="197" height="50" viewBox="0 0 197 50" fill="none" xmlns="http://www.w3.org/2000/svg">
<path d="M92 33.9096V15.2926H106.681V19.2553H96.5745V22.6064H103.25V26.4362H96.5745V29.9468H106.787V33.9096H92Z" fill="#181818"/>
<path d="M117.278 33.9096H112.438L108.289 15.2926H112.996L115.257 26.7819L118.502 15.2926H122.784L126.028 26.7819L128.289 15.2926H132.837L128.688 33.9096H123.847L120.576 22.0479L117.278 33.9096Z" fill="#181818"/>
<path d="M134.984 15.2926H144.213C145.153 15.2926 146.022 15.4255 146.819 15.6915C147.617 15.9397 148.3 16.2943 148.867 16.7553C149.435 17.2163 149.878 17.7748 150.197 18.4309C150.516 19.0692 150.676 19.7695 150.676 20.5319C150.676 21.2943 150.481 22.0124 150.091 22.6862C149.718 23.3422 149.204 23.9007 148.548 24.3617C149.364 24.805 150.02 25.3812 150.516 26.0904C151.013 26.7996 151.261 27.5798 151.261 28.4309C151.261 30.0621 150.649 31.383 149.426 32.3936C148.202 33.4043 146.616 33.9096 144.665 33.9096H134.984V15.2926ZM143.92 19.0426H139.559V22.7128H143.92C144.577 22.7128 145.1 22.5443 145.49 22.2075C145.897 21.8706 146.101 21.4273 146.101 20.8777C146.101 20.328 145.897 19.8848 145.49 19.5479C145.1 19.211 144.577 19.0426 143.92 19.0426ZM144.319 30.1596C145.029 30.1596 145.587 29.9823 145.995 29.6277C146.42 29.2731 146.633 28.7943 146.633 28.1915C146.633 27.5887 146.42 27.1099 145.995 26.7553C145.587 26.4007 145.029 26.2234 144.319 26.2234H139.559V30.1596H144.319Z" fill="#181818"/>
<path d="M164.056 32.5798L157.939 21.1702V33.9096H153.736V15.2926H159.508L164.109 24.0691L168.71 15.2926H174.481V33.9096H170.173V21.2234L164.056 32.5798Z" fill="#00903D"/>
<path d="M196.808 24.6011C196.808 25.8954 196.56 27.1188 196.063 28.2713C195.584 29.406 194.919 30.4078 194.068 31.2766L195.877 33.5638L191.994 35L190.771 33.4574C190.168 33.6879 189.538 33.8652 188.882 33.9894C188.244 34.1312 187.57 34.2021 186.861 34.2021C185.478 34.2021 184.175 33.9539 182.951 33.4574C181.728 32.961 180.673 32.2872 179.787 31.4362C178.9 30.5674 178.2 29.5479 177.685 28.3777C177.171 27.1897 176.914 25.9309 176.914 24.6011C176.914 23.2713 177.171 22.0213 177.685 20.8511C178.2 19.6631 178.9 18.6436 179.787 17.7926C180.673 16.9238 181.728 16.2411 182.951 15.7447C184.175 15.2482 185.478 15 186.861 15C188.244 15 189.547 15.2482 190.771 15.7447C191.994 16.2411 193.049 16.9238 193.935 17.7926C194.822 18.6436 195.522 19.6631 196.037 20.8511C196.551 22.0213 196.808 23.2713 196.808 24.6011ZM190.106 26.2234L191.223 27.6596C191.506 27.234 191.719 26.7642 191.861 26.25C192.021 25.7181 192.1 25.1684 192.1 24.6011C192.1 23.8387 191.967 23.1294 191.701 22.4734C191.435 21.7996 191.063 21.2234 190.584 20.7447C190.123 20.266 189.574 19.8936 188.935 19.6277C188.297 19.344 187.606 19.2021 186.861 19.2021C186.116 19.2021 185.425 19.344 184.787 19.6277C184.148 19.8936 183.59 20.266 183.111 20.7447C182.65 21.2234 182.287 21.7996 182.021 22.4734C181.755 23.1294 181.622 23.8387 181.622 24.6011C181.622 25.3635 181.755 26.0816 182.021 26.7553C182.287 27.4113 182.65 27.9787 183.111 28.4574C183.59 28.9362 184.148 29.3174 184.787 29.6011C185.425 29.867 186.116 30 186.861 30C187.038 30 187.224 29.9911 187.419 29.9734C187.615 29.9557 187.801 29.9291 187.978 29.8936L186.223 27.6596L190.106 26.2234Z" fill="#00903D"/>
<g clip-path="url(#clip0)">
<path d="M36.7016 34.9176L49.7746 49.9732L63.7114 44.317L57.095 27.2816L36.7016 34.9176Z" fill="#21A952"/>
<path d="M27 15.4783L33.3933 14.0635L41.5049 0.846817L27 15.4783Z" fill="#C4E22C"/>
<path d="M27 15.4798L27.7927 36.0477L36.7016 34.9176L33.3933 14.0649L27 15.4798Z" fill="#82CE40"/>
<path d="M27.7928 36.0477L42.7348 49.4764L49.7746 49.9732L36.7016 34.9176L27.7928 36.0477Z" fill="#40B93C"/>
<path d="M41.5049 0.846817L47.6119 8.12695L33.3888 14.065L41.5049 0.846817Z" fill="#82CE40"/>
<path d="M47.6119 8.12695L57.095 27.2816L36.7016 34.9176L33.3888 14.0635L47.6119 8.12695Z" fill="#40B93C"/>
<path d="M49.7746 49.9732L63.0632 47.9237L63.7114 44.317L49.7746 49.9732Z" fill="#197746"/>
<path d="M41.514 0.846817L60.1183 2.04954L47.6119 8.12695L41.514 0.846817Z" fill="#53C049"/>
<path d="M74.4092 18.0913L60.1182 2.04953L47.6149 8.12545L57.095 27.2816L74.4092 18.0913Z" fill="#2DAD57"/>
<path d="M74.4092 18.0913L75.0602 37.6746L63.7114 44.317L57.095 27.2816L74.4092 18.0913Z" fill="#2B9768"/>
<path d="M75.0602 37.6746L63.0648 47.9237L63.7114 44.3169L75.0602 37.6746Z" fill="#357835"/>
<path d="M41.514 0.846802L60.1182 2.04953L62.6322 0L41.514 0.846802Z" fill="#40B93C"/>
<path d="M76.9262 14.065L62.6307 0L60.1182 2.04953L74.4092 18.0913L76.9262 14.065Z" fill="#09A048"/>
<path d="M76.9261 14.0649L77 33.4954L75.0602 37.6642L74.4092 18.0913L76.9261 14.0649Z" fill="#0B895A"/>
<path d="M36.7016 34.9176L49.7746 49.9732L63.7114 44.317L57.095 27.2816L36.7016 34.9176Z" fill="#21A952"/>
<path d="M27 15.4783L33.3933 14.0635L41.5049 0.846817L27 15.4783Z" fill="#C4E22C"/>
<path d="M27 15.4798L27.7927 36.0477L36.7016 34.9176L33.3933 14.0649L27 15.4798Z" fill="#82CE40"/>
<path d="M27.7928 36.0477L42.7348 49.4764L49.7746 49.9732L36.7016 34.9176L27.7928 36.0477Z" fill="#40B93C"/>
<path d="M41.5049 0.846817L47.6119 8.12695L33.3888 14.065L41.5049 0.846817Z" fill="#82CE40"/>
<path d="M47.6119 8.12695L57.095 27.2816L36.7016 34.9176L33.3888 14.0635L47.6119 8.12695Z" fill="#40B93C"/>
<path d="M49.7746 49.9732L63.0632 47.9237L63.7114 44.317L49.7746 49.9732Z" fill="#197746"/>
<path d="M41.514 0.846817L60.1183 2.04954L47.6119 8.12695L41.514 0.846817Z" fill="#53C049"/>
<path d="M74.4092 18.0913L60.1182 2.04953L47.6149 8.12545L57.095 27.2816L74.4092 18.0913Z" fill="#2DAD57"/>
<path d="M74.4092 18.0913L75.0602 37.6746L63.7114 44.317L57.095 27.2816L74.4092 18.0913Z" fill="#2B9768"/>
<path d="M75.0602 37.6746L63.0648 47.9237L63.7114 44.3169L75.0602 37.6746Z" fill="#357835"/>
<path d="M41.514 0.846802L60.1182 2.04953L62.6322 0L41.514 0.846802Z" fill="#40B93C"/>
<path d="M76.9262 14.065L62.6307 0L60.1182 2.04953L74.4092 18.0913L76.9262 14.065Z" fill="#09A048"/>
<path d="M76.9261 14.0649L77 33.4954L75.0602 37.6642L74.4092 18.0913L76.9261 14.0649Z" fill="#0B895A"/>
</g>
<path d="M12.82 17.2834L5.403 24.7166L12.82 32.1498L10.5366 34.4332L0.820007 24.7166L10.5366 15L12.82 17.2834Z" fill="#181818"/>
<defs>
<clipPath id="clip0">
<rect width="50" height="50" fill="white" transform="translate(27)"/>
</clipPath>
</defs>
</svg>
